assets/Sneezing face/Flat/sneezing_face_flat.svg

<svg width="32" height="32" viewBox="0 0 32 32" fill="none" xmlns="http://www.w3.org/2000/svg">
<path d="M15.9989 29.9978C25.3333 29.9978 29.9978 23.7303 29.9978 15.9989C29.9978 8.26751 25.3333 2 15.9989 2C6.66443 2 2 8.26751 2 15.9989C2 23.7303 6.66443 29.9978 15.9989 29.9978Z" fill="#FFB02E"/>
<path d="M23.45 14.03L21.24 12.92L23.45 11.81C23.94 11.56 24.14 10.96 23.9 10.47C23.66 9.98004 23.05 9.78004 22.56 10.02L18.56 12.02C18.21 12.19 18 12.54 18 12.92C18 13.3 18.21 13.65 18.55 13.81L22.55 15.81C23.04 16.06 23.64 15.86 23.89 15.36C24.14 14.86 23.94 14.27 23.45 14.03Z" fill="#402A32"/>
<path d="M13.45 12.03L9.44999 10.03C8.94999 9.78 8.34999 9.98 8.10999 10.47C7.86999 10.96 8.05999 11.57 8.54999 11.81L10.76 12.92L8.54999 14.03C8.05999 14.28 7.85999 14.88 8.09999 15.37C8.33999 15.86 8.94999 16.06 9.43999 15.82L13.44 13.82C13.79 13.64 14 13.3 14 12.92C14 12.54 13.79 12.19 13.45 12.03Z" fill="#402A32"/>
<path d="M15.0971 19.6829C13.8266 18.4123 11.7634 18.4123 10.4929 19.6829C10.0034 20.1723 9.20659 20.1723 8.71712 19.6829C8.32659 19.2923 7.69343 19.2923 7.3029 19.6829C6.91238 20.0734 6.91238 20.7066 7.3029 21.0971C8.57343 22.3676 10.6366 22.3676 11.9071 21.0971C12.3966 20.6076 13.1934 20.6076 13.6829 21.0971C14.9534 22.3676 17.0166 22.3676 18.2871 21.0971C18.7466 20.6376 19.477 20.6094 19.9697 21.0127C19.9797 21.0256 19.99 21.0383 20.0008 21.0508C21.2803 22.5436 23.419 22.3728 24.6648 21.0993C25.0511 20.7045 25.0441 20.0714 24.6493 19.6851C24.2545 19.2989 23.6214 19.3059 23.2352 19.7007C22.7174 20.23 22.0187 20.2204 21.6026 19.8357C21.5666 19.7817 21.5247 19.7305 21.4771 19.6829C20.2066 18.4123 18.1434 18.4123 16.8729 19.6829C16.3834 20.1723 15.5866 20.1723 15.0971 19.6829Z" fill="#402A32"/>
<path d="M14.439 16.0099C8.68578 16.6947 4.07318 21.1062 3.0326 26.7766C2.91253 27.4414 3.13265 28.101 3.55289 28.5543C4.21326 29.1586 5.24384 29.1485 5.8842 28.5039C6.54458 27.8392 7.61518 27.8343 8.27555 28.499C8.93592 29.1638 10.0065 29.1638 10.6669 28.499C11.3273 27.8343 12.3979 27.8039 13.0582 28.4687C13.6686 29.1838 14.7192 29.1536 15.3896 28.519C15.7698 28.1262 15.9999 27.5924 15.9999 27.0083V17.4401C16.0099 16.594 15.2795 15.9091 14.439 16.0099Z" fill="white"/>
<path d="M3.55289 28.5543C3.69918 28.6882 3.86364 28.7919 4.03799 28.8652C4.24982 28.1298 5.34126 24.5409 7.15625 22C8.88731 19.5765 12.6837 16.858 13.768 16.1074C8.32972 17.0425 4.0324 21.3284 3.0326 26.7766C3.01058 26.8986 3 27.0203 3 27.1406C3 27.6764 3.20972 28.1842 3.55289 28.5543Z" fill="#F4F4F4"/>
<path d="M13.1575 25.0028C13.3731 23.6254 13.758 21.1239 13.9715 19.4748C14.0637 18.7628 13.4001 18.3206 12.8557 18.7886C10.5437 20.7761 8.78407 24.9522 8.20477 26.4504C8.0934 26.7384 8.27835 27.043 8.58703 27.052C9.15922 27.0687 10.0123 26.9975 10.5 26.5C10.8778 26.1147 11.4748 25.9851 11.9907 25.954C12.5468 25.9205 13.0713 25.5533 13.1575 25.0028Z" fill="#F4F4F4"/>
</svg>

<svg xmlns="http://www.w3.org/2000/svg" width="32" height="32" fill="none"><path fill="#FFB02E" d="M15.999 29.998c9.334 0 13.999-6.268 13.999-14 0-7.73-4.665-13.998-14-13.998C6.665 2 2 8.268 2 15.999c0 7.731 4.664 13.999 13.999 13.999Z"/><path fill="#402A32" d="m23.45 14.03-2.21-1.11 2.21-1.11c.49-.25.69-.85.45-1.34-.24-.49-.85-.69-1.34-.45l-4 2c-.35.17-.56.52-.56.9s.21.73.55.89l4 2c.49.25 1.09.05 1.34-.45s.05-1.09-.44-1.33ZM13.45 12.03l-4-2a.993.993 0 0 0-1.34.44c-.24.49-.05 1.1.44 1.34l2.21 1.11-2.21 1.11c-.49.25-.69.85-.45 1.34.24.49.85.69 1.34.45l4-2c.35-.18.56-.52.56-.9s-.21-.73-.55-.89ZM15.097 19.683a3.257 3.257 0 0 0-4.604 0c-.49.49-1.286.49-1.776 0a1 1 0 1 0-1.414 1.414 3.257 3.257 0 0 0 4.604 0c.49-.49 1.286-.49 1.776 0a3.257 3.257 0 0 0 4.604 0c.46-.46 1.19-.488 1.683-.084l.03.038c1.28 1.493 3.419 1.322 4.665.048a1 1 0 1 0-1.43-1.398c-.518.529-1.216.52-1.632.135a1.003 1.003 0 0 0-.126-.153 3.257 3.257 0 0 0-4.604 0c-.49.49-1.286.49-1.776 0Z"/><path fill="#fff" d="M14.439 16.01c-5.753.685-10.366 5.096-11.406 10.767-.12.664.1 1.324.52 1.777.66.605 1.69.595 2.331-.05a1.683 1.683 0 0 1 2.392-.005c.66.665 1.73.665 2.39 0 .661-.665 1.732-.695 2.392-.03.61.715 1.661.685 2.332.05.38-.393.61-.927.61-1.51V17.44c.01-.846-.72-1.53-1.561-1.43Z"/><path fill="#F4F4F4" d="M3.553 28.554c.146.134.31.238.485.311.212-.735 1.303-4.324 3.118-6.865 1.731-2.424 5.528-5.142 6.612-5.893-5.438.936-9.736 5.221-10.735 10.67a2.092 2.092 0 0 0 .52 1.778ZM13.158 25.003c.215-1.378.6-3.88.814-5.528.092-.712-.572-1.154-1.116-.686-2.312 1.987-4.072 6.163-4.651 7.661-.112.288.073.593.382.602.572.017 1.425-.055 1.913-.552.378-.385.975-.515 1.49-.546.557-.034 1.081-.4 1.168-.951Z"/></svg>
